X: 25293
T: Man Of The House, The
R: reel
M: 4/4
K: Eminor
|:E2B,E GABG|E2AG FDAD|E2B,E GABe|1 dBAA BAGF:|2 dBAA BEEe||
efge fgaf|gfed edBd|e2ge f2af|gfed Beed|
efge faaf|gfed efga|b2af gefd|eBdA GAFA||

